X: 25679
T: Martin Wynne's
R: reel
M: 4/4
K: Gmajor
|:Bc|dged B2Ac|BGdG EAAc|BGdB cdef|g2ga gfed|
dged B2Ac|BGdG EAAc|BGdB cdef|gbaf g2:|
|:ba|g3a gfed|dged BGBc|dg g2 gfed|dega bgaf|
gbaf gfed|dged BGBc|dg g2 gfed|dfaf g2:|

